X:294
T: ES WAR EIN KLEINER MANN
N: E0895
O: Europa, Mitteleuropa, Deutschland, Schleswig - Holstein
R: Ehestands - Lied, Spott
M: 3/4
L: 1/8
K: F
 | F2A2c2 | B2BEE2 |
c4d2 | c6 |
fffff2 | e2edc2 |
dddfed | c2cBA2 |
B2G2c2 | F4z2

